fs/beaker_24_filled.svg

<svg viewBox="0 0 24 24" fill="none" xmlns="http://www.w3.org/2000/svg" height="1em" width="1em">
  <path d="M8.99998 4.5V10.7382C8.99998 11.1132 8.90628 11.4822 8.72739 11.8117L7.53944 14H16.4605L15.2726 11.8117C15.0937 11.4822 15 11.1132 15 10.7382V4.5H16C16.4142 4.5 16.75 4.16421 16.75 3.75C16.75 3.33579 16.4142 3 16 3H8C7.58579 3 7.25 3.33579 7.25 3.75C7.25 4.16421 7.58579 4.5 8 4.5H8.99998ZM17.2748 15.5H6.72515L5.14269 18.415C4.50968 19.5811 5.35388 20.9999 6.68068 20.9999H17.3193C18.6461 20.9999 19.4903 19.5811 18.8573 18.415L17.2748 15.5Z" fill="#212121"/>
</svg>

<svg viewBox="0 0 24 24" fill="none" xmlns="http://www.w3.org/2000/svg" height="1em" width="1em">
  <path d="M9 4.5v6.238c0 .375-.094.744-.273 1.074L7.54 14h8.922l-1.188-2.188A2.25 2.25 0 0 1 15 10.738V4.5h1A.75.75 0 0 0 16 3H8a.75.75 0 0 0 0 1.5h1Zm8.275 11H6.725l-1.582 2.915A1.75 1.75 0 0 0 6.68 21h10.638a1.75 1.75 0 0 0 1.538-2.585L17.275 15.5Z" fill="#212121"/>
</svg>
